X:1
T:ALABAMA
M:4/4
L:1/8
K:F
z6AG|F2C2A,2C2|F2G2A4|C2CC B2B2|G4z2AG|
F2CC A,2C2|FF G2A4|B4A2AA|G2G2F2z2|]
